icons/outline/password-fingerprint.svg

<!--
tags: [biometric, security, authentication, identity, access, login, verify, privacy, protection, recognition]
category: System
version: "2.34"
unicode: "fc7b"
-->
<svg
  xmlns="http://www.w3.org/2000/svg"
  width="24"
  height="24"
  viewBox="0 0 24 24"
  fill="none"
  stroke="currentColor"
  stroke-width="2"
  stroke-linecap="round"
  stroke-linejoin="round"
>
  <path d="M17 8c.788 1 1 2 1 3v1m-9 -1c0 -1.578 1.343 -3 3 -3s3 1.422 3 3v2m-3 -2v2m-6 -1v-1.397c-.006 -1.999 1.136 -3.849 2.993 -4.85a6.385 6.385 0 0 1 6.007 -.005m-3 11.252v4m-2 -1l4 -2m-4 0l4 2m-9 -3v4m-2 -1l4 -2m-4 0l4 2m12 -3v4m-2 -1l4 -2m-4 0l4 2" />
</svg>

<!--
tags: [biometric, security, authentication, identity, access, login, verify, privacy, protection, recognition]
category: System
version: "2.34"
unicode: "fc7b"
-->
<svg
  xmlns="http://www.w3.org/2000/svg"
  width="24"
  height="24"
  viewBox="0 0 24 24"
  fill="none"
  stroke="currentColor"
  stroke-width="2"
  stroke-linecap="round"
  stroke-linejoin="round"
>
    <path d="M17 8c.788 1 1 2 1 3v1M9 11c0 -1.578 1.343 -3 3 -3s3 1.422 3 3v2M12 11v2M6 12v-1.397c-.006 -1.999 1.136 -3.849 2.993 -4.85a6.385 6.385 0 0 1 6.007 -.005M12 17v4M10 20l4 -2M10 18l4 2M5 17v4M3 20l4 -2M3 18l4 2M19 17v4M17 20l4 -2M17 18l4 2" />
</svg>
